public/assets/logo/logo.svg

<svg fill="none" height="1800" viewBox="0 0 1800 1800" width="1800" xmlns="http://www.w3.org/2000/svg"><circle cx="900" cy="900" fill="#be123c" r="900"/><circle cx="900" cy="900" fill="#fff" r="800"/><path clip-rule="evenodd" d="m1445.64 1487.76c32.25-30.06 62.01-62.75 88.96-97.73-70.51-99.25-140.85-198.64-211.03-298.17-.56-.53-1.23-.86-2-1.01-38.14 15.09-77.67 21.43-118.58 19.04 1.61 4.56 3.77 8.9 6.5 13.02 78.72 121.63 157.44 243.25 236.15 364.85zm143.26-177.75c23.91-40.28 44.41-82.83 61.07-127.26-73.1-56.73-146.04-113.75-218.82-171.04-19.25 21.28-40.6 39.98-64.05 56.1 74.02 80.66 147.95 161.4 221.8 242.2zm86.42-207.5c13.69-52.92 22.11-107.958 24.68-164.525-70.3-12.284-140.56-24.781-210.81-37.488-1.15.319-1.98.986-2.5 2.004-6.49 24.669-15.99 48.046-28.52 70.131 72.01 43.888 144.4 87.188 217.15 129.878zm24.5-242.257c-2.18-43.546-7.83-86.177-16.68-127.62-66.99 4.82-133.97 9.679-200.96 14.578 10.23 33.629 14.57 68.027 13.01 103.193zm-35.62-199.665c-16.48-52.535-38.21-102.739-64.59-149.994-16.46 9.242-32.92 18.484-49.38 27.726-49.37 27.718-98.73 55.437-148.1 83.155-.86.691-1.52 1.525-2 2.505 24.15 21.334 44 46.047 59.54 74.139.96 1.396 2.29 2.065 4 2.003 66.81-13.405 133.65-26.583 200.53-39.534zm-105.33-215.398c-30.26-43.731-64.74-84.303-102.87-121.122-63.71 78.226-127.36 156.489-190.97 234.79.21.587.54 1.088 1 1.503 16.4 2.912 32.42 7.253 48.04 13.024 15.24 6.468 30.25 13.146 45.03 20.038 66.54-49.496 133.13-98.907 199.77-148.233zm-307.19-264.549c48.09 23.555 93.46 51.793 135.54 84.12-60.32 96.976-120.57 194.007-180.73 291.092-33.79 4.111-67.65 8.119-101.57 12.022-1.33-.333-2.67-.668-4-1.002 50.39-128.706 100.65-257.45 150.76-386.232zm-231.88-72.27c45.8 6.865 90.33 17.614 133.25 31.902-36.53 144.855-72.92 289.727-109.17 434.615-28.66 3.559-57.343 6.898-86.062 10.019 21.135-158.779 41.795-317.624 61.982-476.536zm-261.705 3.731c37.049-6.649 74.982-10.745 113.611-12.102h37.077c-.49 163.641-1.157 327.28-2.001 490.918-30.003 3.82-60.024 7.494-90.063 11.021-19.932-163.228-39.473-326.507-58.624-489.837zm-285.835 111.447c54.746-34.742 113.991-63.016 176.665-83.749 39.461 155.944 78.381 311.993 116.758 468.15-34.54 3.801-69.064 7.809-103.572 12.023-1.437-.06-2.771-.393-4.003-1.002-62.121-131.747-124.07-263.554-185.848-395.422zm-194.786 173.813c33.029-40.889 69.994-78.46 110.317-112.135 70.374 110.615 140.799 221.195 211.276 331.74 2.221 3.046 3.722 6.385 4.503 10.019-15.376 1.506-30.72 3.343-46.032 5.51-16.592 3.431-32.937 7.439-49.035 12.022-77.083-82.352-154.093-164.737-231.029-247.156zm-125.851 219.12c18.988-50.052 42.84-97.706 70.977-142.384 78.307 65.327 156.596 130.65 234.868 195.968-22.407 15.236-42.921 32.935-61.543 53.1-2.066 3.232-4.567 5.904-7.506 8.015-79.049-38.068-157.981-76.301-236.796-114.699zm-49.362 220.163c3.722-46.904 11.477-92.67 22.918-136.952 77.342 26.117 154.749 51.975 232.219 77.574.16 1.702-.006 3.372-.501 5.009-11.672 23.204-19.844 47.582-24.517 73.137-76.749-5.772-153.456-12.027-230.119-18.768zm15.391 233.845c-10.296-47.88-16.32-97.351-17.652-147.992 75.707-3.931 151.499-7.257 227.377-9.978.741 12.055 1.908 24.078 3.502 36.067 2.51 12.717 5.012 25.408 7.505 38.071-73.681 27.592-147.258 55.542-220.732 83.832zm86.959 227.41c-25.922-45.44-47.53-93.67-64.265-144.12 72.601-39.21 145.285-78.21 218.052-117.03 1.531.03 2.698.7 3.503 2.01 16.157 29.71 37.005 55.76 62.544 78.14-73.194 60.42-146.471 120.75-219.834 181zm157.388 196.38c-39.404-35.85-75.222-75.59-106.85-118.61 71.365-75.44 142.807-150.84 214.327-226.21 1.001-.67 2.002-.67 3.002 0 17.718 9.98 36.397 17.5 56.039 22.55-55.307 107.51-110.813 214.94-166.518 322.27zm218.266 141.62c-47.261-20.66-92.145-45.75-134.126-74.76 46.146-125.74 92.451-251.45 138.918-377.11 28.632.13 56.985-2.88 85.059-9.02.22.09.439.18.658.26l.355.15.219.08c.424.17.847.34 1.27.51-31.076 153.24-61.86 306.54-92.353 459.89zm254.234 63.93c-49.334-4.02-97.402-12.51-143.8-25.08 11.893-173.29 24.379-346.55 37.458-519.78 26.218-12.92 51.402-27.45 75.553-43.58 1.294-.49 2.629-.66 4.003-.5 9.022 196.31 17.951 392.62 26.786 588.94zm274.061-24.73c-46.66 12.55-95 20.99-144.617 24.9-36.169-205.68-72.234-411.4-108.197-617.16.333-1 .668-2.01 1.001-3.01 35.797-20.94 74.324-29.62 115.581-26.05 1.982.13 3.649.8 5.003 2.01 43.569 206.49 87.319 412.93 131.229 619.31zm248.66-115.9c-39.56 27.58-81.73 51.68-126.06 71.85-65.54-187.6-130.64-375.34-195.29-563.24 33.86 10.3 67.55 20.99 101.07 32.06 34.87 72.7 69.73 145.39 104.59 218.08 38.56 80.42 77.13 160.84 115.69 241.25zm-161.24-891.138c34.96-1.641 56.8 14.389 65.55 48.09 3.51 25.525-5.33 45.395-26.52 59.612-28.26 14.087-53.45 9.913-75.55-12.523-13.5-18.872-16.17-39.244-8.01-61.115 9.15-19.001 23.99-30.356 44.53-34.064zm-555.384 77.145h-5.004c-33.174 4.359-66.531 8.366-100.07 12.022 2.4 28.135 5.569 56.187 9.507 84.158 19.071 15.425 38.419 30.453 58.041 45.084 1.945-.941 3.613-2.277 5.003-4.007 13.295-17.654 26.971-35.02 41.029-52.098.667-4.007.667-8.015 0-12.022-2.919-24.378-5.754-48.757-8.506-73.137zm675.474 18.034c29.33-2.28 50.17 9.743 62.54 36.067 9.37 28.65 2.19 52.194-21.51 70.632-28.15 15.033-53.67 11.527-76.56-10.52-16.37-22.87-17.7-46.581-4-71.133 9.94-13.569 23.12-21.918 39.53-25.046zm-149.61 73.136c-8.49-32.58-29.68-48.61-63.54-48.09-21.25 3.397-36.76 14.751-46.53 34.064-10.04 27.578-4.2 51.122 17.51 70.632 20.87 13.684 42.56 15.019 65.04 4.008 21.77-14.374 30.95-34.578 27.52-60.614zm-422.792-1.002c3.608-.289 7.111.045 10.507 1.002 4.167 34.706 8.003 69.437 11.508 104.195-27.959 3.667-55.979 6.505-84.058 8.516-19.183-15.035-38.196-30.23-57.04-45.585 14.982-19.809 30.326-39.346 46.032-58.61 24.49-3.149 48.841-6.321 73.051-9.518zm-214.15 26.55c-1.974-.496-3.976-.663-6.004-.501-25.806 3.646-51.824 6.652-78.055 9.017 3.93 35.408 7.933 70.809 12.009 106.199 27.69-3.062 55.376-6.235 83.058-9.518 15.832-19.358 31.177-39.062 46.032-59.111-18.664-15.667-37.677-31.03-57.04-46.086zm693.482 21.54c33.67-.951 54.85 14.745 63.55 47.089 3.98 34.623-10.53 57.165-43.53 67.626-35.13 5.06-58.3-9.138-69.55-42.58-5.2-30.833 5.97-53.376 33.52-67.626 5.38-1.844 10.72-3.346 16.01-4.509zm-610.424 43.582c-1.718-1.562-3.719-2.397-6.004-2.505-14.605 19.142-29.449 38.178-44.531 57.107 2.502 28.061 5.338 56.111 8.506 84.161 35.437-3.35 70.794-7.36 106.074-12.03-2.955-28.13-6.458-56.181-10.507-84.153-18.134-13.812-35.98-28.006-53.538-42.58z" fill="#be123c" fill-rule="evenodd"/></svg>

<svg width="1800" height="1800" viewBox="0 0 1800 1800" fill="none" xmlns="http://www.w3.org/2000/svg">
<circle cx="900" cy="900" r="900" fill="#be123c"/>
<circle cx="900" cy="900" r="800" fill="white"/>
<path fill-rule="evenodd" clip-rule="evenodd" d="M1445.64 1487.76C1477.89 1457.7 1507.65 1425.01 1534.6 1390.03C1464.09 1290.78 1393.75 1191.39 1323.57 1091.86C1323.01 1091.33 1322.34 1091 1321.57 1090.85C1283.43 1105.94 1243.9 1112.28 1202.99 1109.89C1204.6 1114.45 1206.76 1118.79 1209.49 1122.91C1288.21 1244.54 1366.93 1366.16 1445.64 1487.76ZM1588.9 1310.01C1612.81 1269.73 1633.31 1227.18 1649.97 1182.75C1576.87 1126.02 1503.93 1069 1431.15 1011.71C1411.9 1032.99 1390.55 1051.69 1367.1 1067.81C1441.12 1148.47 1515.05 1229.21 1588.9 1310.01ZM1675.32 1102.51C1689.01 1049.59 1697.43 994.552 1700 937.985C1629.7 925.701 1559.44 913.204 1489.19 900.497C1488.04 900.816 1487.21 901.483 1486.69 902.501C1480.2 927.17 1470.7 950.547 1458.17 972.632C1530.18 1016.52 1602.57 1059.82 1675.32 1102.51ZM1699.82 860.253C1697.64 816.707 1691.99 774.076 1683.14 732.633C1616.15 737.453 1549.17 742.312 1482.18 747.211C1492.41 780.841 1496.75 815.238 1495.19 850.404L1699.82 860.253ZM1664.2 660.588C1647.72 608.053 1625.99 557.849 1599.61 510.594C1583.29 519.757 1566.97 528.919 1550.66 538.082C1501.15 565.88 1451.64 593.678 1402.13 621.475C1401.27 622.166 1400.61 623 1400.13 623.98C1424.28 645.314 1444.13 670.027 1459.67 698.119C1460.63 699.515 1461.96 700.184 1463.67 700.122C1530.48 686.717 1597.32 673.539 1664.2 660.588ZM1558.87 445.19C1528.61 401.459 1494.13 360.887 1456 324.068C1392.29 402.294 1328.64 480.557 1265.03 558.858C1265.24 559.445 1265.57 559.946 1266.03 560.361C1282.43 563.273 1298.45 567.614 1314.07 573.385C1329.31 579.853 1344.32 586.531 1359.1 593.423C1425.64 543.927 1492.23 494.516 1558.87 445.19ZM1251.68 180.641C1299.77 204.196 1345.14 232.434 1387.22 264.761C1326.9 361.737 1266.65 458.768 1206.49 555.853C1172.7 559.964 1138.84 563.972 1104.92 567.875C1104.26 567.71 1103.6 567.545 1102.94 567.379C1102.26 567.211 1101.59 567.042 1100.92 566.873C1151.31 438.167 1201.57 309.423 1251.68 180.641ZM1019.8 108.371C1065.6 115.236 1110.13 125.985 1153.05 140.273C1116.52 285.128 1080.13 430 1043.88 574.888C1015.22 578.447 986.537 581.786 957.818 584.907C978.953 426.128 999.613 267.283 1019.8 108.371ZM758.095 112.102C795.144 105.453 833.077 101.357 871.706 100H908.783C908.293 263.641 907.626 427.28 906.782 590.918C876.779 594.738 846.758 598.412 816.719 601.939C796.787 438.711 777.246 275.432 758.095 112.102ZM472.26 223.549C527.006 188.807 586.251 160.533 648.925 139.8C688.386 295.744 727.306 451.793 765.683 607.95C731.143 611.751 696.619 615.759 662.111 619.973C660.674 619.913 659.34 619.58 658.108 618.971C595.987 487.224 534.038 355.417 472.26 223.549ZM277.474 397.362C310.503 356.473 347.468 318.902 387.791 285.227C458.165 395.842 528.59 506.422 599.067 616.967C601.288 620.013 602.789 623.352 603.57 626.986C588.194 628.493 572.85 630.329 557.538 632.496C540.946 635.927 524.601 639.935 508.503 644.518C431.42 562.166 354.41 479.781 277.474 397.362ZM151.623 616.482C170.611 566.43 194.463 518.776 222.6 474.098C300.907 539.425 379.196 604.748 457.468 670.066C435.061 685.302 414.547 703.001 395.925 723.166C393.859 726.398 391.358 729.07 388.419 731.181C309.37 693.113 230.438 654.88 151.623 616.482ZM102.261 836.645C105.983 789.741 113.738 743.975 125.179 699.693C202.521 725.81 279.928 751.668 357.398 777.267C357.558 778.969 357.392 780.639 356.897 782.276C345.225 805.48 337.053 829.858 332.38 855.413C255.631 849.641 178.924 843.386 102.261 836.645ZM117.652 1070.49C107.356 1022.61 101.332 973.139 100 922.498C175.707 918.567 251.499 915.242 327.377 912.52C328.118 924.575 329.285 936.598 330.879 948.587C333.389 961.304 335.891 973.995 338.384 986.658C264.703 1014.25 191.126 1042.2 117.652 1070.49ZM204.611 1297.9C178.689 1252.46 157.081 1204.23 140.346 1153.78C212.947 1114.57 285.631 1075.57 358.398 1036.75C359.929 1036.78 361.096 1037.45 361.901 1038.76C378.058 1068.47 398.906 1094.52 424.445 1116.9C351.251 1177.32 277.974 1237.65 204.611 1297.9ZM361.999 1494.28C322.595 1458.43 286.777 1418.69 255.149 1375.67C326.514 1300.23 397.956 1224.83 469.476 1149.46C470.477 1148.79 471.478 1148.79 472.478 1149.46C490.196 1159.44 508.875 1166.96 528.517 1172.01C473.21 1279.52 417.704 1386.95 361.999 1494.28ZM580.265 1635.9C533.004 1615.24 488.12 1590.15 446.139 1561.14C492.285 1435.4 538.59 1309.69 585.057 1184.03C613.689 1184.16 642.042 1181.15 670.116 1175.01C670.503 1175.16 670.889 1175.32 671.276 1175.47L671.321 1175.49L671.369 1175.51C671.64 1175.62 671.912 1175.73 672.183 1175.84C672.328 1175.9 672.473 1175.96 672.618 1176.01C641.542 1329.25 610.758 1482.55 580.265 1635.9ZM834.499 1699.83C785.165 1695.81 737.097 1687.32 690.699 1674.75C702.592 1501.46 715.078 1328.2 728.157 1154.97C754.375 1142.05 779.559 1127.52 803.71 1111.39C805.004 1110.9 806.339 1110.73 807.713 1110.89C816.735 1307.2 825.664 1503.51 834.499 1699.83ZM1108.56 1675.1C1061.9 1687.65 1013.56 1696.09 963.943 1700C927.774 1494.32 891.709 1288.6 855.746 1082.84C856.079 1081.84 856.414 1080.83 856.747 1079.83C892.544 1058.89 931.071 1050.21 972.328 1053.78C974.31 1053.91 975.977 1054.58 977.331 1055.79C1020.9 1262.28 1064.65 1468.72 1108.56 1675.1ZM1357.22 1559.2C1317.66 1586.78 1275.49 1610.88 1231.16 1631.05C1165.62 1443.45 1100.52 1255.71 1035.87 1067.81C1069.73 1078.11 1103.42 1088.8 1136.94 1099.87C1172.66 1174.35 1208.37 1248.82 1244.09 1323.29L1248.43 1332.35L1252.47 1340.76L1252.92 1341.71L1253.37 1342.65L1253.82 1343.59L1254.27 1344.53C1288.59 1416.09 1322.91 1487.65 1357.22 1559.2ZM1195.98 668.063C1230.94 666.421 1252.78 682.451 1261.53 716.152C1265.04 741.677 1256.2 761.547 1235.01 775.764C1206.75 789.851 1181.56 785.678 1159.46 763.241C1145.96 744.369 1143.29 723.997 1151.45 702.126C1160.6 683.125 1175.44 671.77 1195.98 668.063ZM640.596 745.207H635.592C602.418 749.566 569.061 753.573 535.522 757.229C537.922 785.364 541.091 813.416 545.029 841.387C564.1 856.812 583.448 871.84 603.07 886.471C605.015 885.53 606.683 884.194 608.073 882.464C621.368 864.81 635.044 847.444 649.102 830.366C649.769 826.359 649.769 822.351 649.102 818.344C646.183 793.966 643.348 769.587 640.596 745.207ZM1316.07 763.241C1345.4 760.961 1366.24 772.984 1378.61 799.308C1387.98 827.958 1380.8 851.502 1357.1 869.94C1328.95 884.973 1303.43 881.467 1280.54 859.42C1264.17 836.55 1262.84 812.839 1276.54 788.287C1286.48 774.718 1299.66 766.369 1316.07 763.241ZM1166.46 836.377C1157.97 803.797 1136.78 787.767 1102.92 788.287C1081.67 791.684 1066.16 803.038 1056.39 822.351C1046.35 849.929 1052.19 873.473 1073.9 892.983C1094.77 906.667 1116.46 908.002 1138.94 896.991C1160.71 882.617 1169.89 862.413 1166.46 836.377ZM743.668 835.375C747.276 835.086 750.779 835.42 754.175 836.377C758.342 871.083 762.178 905.814 765.683 940.572C737.724 944.239 709.704 947.077 681.624 949.088C662.442 934.053 643.429 918.858 624.585 903.503C639.567 883.694 654.911 864.157 670.617 844.893C695.107 841.744 719.458 838.572 743.668 835.375ZM529.518 861.925C527.544 861.429 525.542 861.262 523.514 861.424C497.708 865.07 471.69 868.076 445.459 870.441C449.389 905.849 453.392 941.25 457.468 976.64C485.158 973.578 512.844 970.405 540.526 967.122C556.358 947.764 571.703 928.06 586.558 908.011C567.894 892.344 548.881 876.981 529.518 861.925ZM1223 883.465C1256.67 882.514 1277.85 898.21 1286.55 930.554C1290.53 965.177 1276.02 987.719 1243.02 998.18C1207.89 1003.24 1184.72 989.042 1173.47 955.6C1168.27 924.767 1179.44 902.225 1206.99 887.974C1212.37 886.13 1217.71 884.628 1223 883.465ZM612.576 927.047C610.858 925.485 608.857 924.65 606.572 924.542C591.967 943.684 577.123 962.72 562.041 981.649C564.543 1009.71 567.379 1037.76 570.547 1065.81C605.984 1062.46 641.341 1058.45 676.621 1053.78C673.666 1025.65 670.163 997.599 666.114 969.627C647.98 955.815 630.134 941.621 612.576 927.047Z" fill="#be123c"/>
</svg>
